img/icon-barf/nuts.svg

<svg width="20" height="21" viewBox="0 0 20 21" fill="none" xmlns="http://www.w3.org/2000/svg">
<path d="M7.24214 8.89464C6.93489 7.81929 5.99854 7.08191 4.91587 7.08191C3.83321 7.08191 2.89685 7.81929 2.58961 8.89464C1.81419 9.40159 1.17045 10.1851 0.716898 11.1529C0.24872 12.1668 0 13.3496 0 14.594C0 16.2838 0.453548 17.8661 1.28749 19.0183C2.19459 20.2933 3.48208 20.9846 4.91587 20.9846C6.34967 20.9846 7.63716 20.2933 8.54426 19.0183C8.64667 18.88 8.61741 18.6957 8.48573 18.5881C8.35406 18.4806 8.17849 18.5113 8.07608 18.6496C7.28603 19.7556 6.15947 20.3701 4.91587 20.3701C3.67227 20.3701 2.54572 19.7556 1.75567 18.6496C0.994879 17.5896 0.585223 16.1456 0.585223 14.594C0.585223 13.4418 0.804682 12.3358 1.2436 11.4294C1.66789 10.523 2.26774 9.81636 2.99927 9.37086C3.07242 9.32478 3.11631 9.26333 3.13094 9.17116C3.33577 8.31088 4.0673 7.69639 4.91587 7.69639C5.76445 7.69639 6.51061 8.29552 6.7008 9.17116C6.71543 9.24797 6.77396 9.32478 6.83248 9.37086C7.56401 9.81636 8.16386 10.5384 8.58815 11.4294C9.01243 12.3511 9.24652 13.4418 9.24652 14.594C9.24652 15.6232 9.07096 16.6064 8.71982 17.4667C8.6613 17.6203 8.71982 17.8047 8.88076 17.8661C9.02707 17.9276 9.20263 17.8661 9.26116 17.6971C9.64155 16.76 9.83175 15.7001 9.83175 14.594C9.83175 13.3496 9.58303 12.1514 9.11485 11.1529C8.67593 10.1851 8.01756 9.40159 7.24214 8.89464Z" fill="#961914"/>
<path d="M2.7213 12.6738C2.56036 12.6277 2.39943 12.7199 2.35554 12.8889C2.20923 13.4112 2.13608 13.9949 2.13608 14.5941C2.13608 17.0059 3.30652 18.7418 4.91589 18.7418C6.52525 18.7418 7.6957 16.9905 7.6957 14.5941C7.6957 12.1976 6.52525 10.4463 4.91589 10.4463C4.18436 10.4463 3.51135 10.815 3.01391 11.4909C2.9115 11.6292 2.94076 11.8135 3.0578 11.9211C3.18948 12.0286 3.36505 11.9979 3.46746 11.8596C3.86249 11.3373 4.35993 11.0608 4.91589 11.0608C6.18875 11.0608 7.11047 12.5509 7.11047 14.5941C7.11047 16.6372 6.18875 18.1273 4.91589 18.1273C3.64303 18.1273 2.7213 16.6372 2.7213 14.5941C2.7213 14.041 2.79445 13.5187 2.92613 13.0578C2.97002 12.8889 2.86761 12.7199 2.7213 12.6738Z" fill="#961914"/>
<path d="M18.7125 1.96635C17.8054 0.691295 16.5179 0 15.0841 0C13.6503 0 12.3482 0.691295 11.4557 1.96635C10.8705 2.78054 10.4609 3.82516 10.2853 4.97732C10.2414 5.13094 10.3584 5.29993 10.5194 5.33065C10.6803 5.34601 10.8266 5.23848 10.8559 5.0695C11.0168 4.02487 11.3826 3.07242 11.9239 2.33504C12.714 1.22897 13.8259 0.614484 15.0841 0.614484C16.3277 0.614484 17.4543 1.22897 18.2443 2.33504C19.0051 3.39503 19.4148 4.83906 19.4148 6.39064C19.4148 7.54279 19.1953 8.64887 18.7564 9.55523C18.3321 10.4616 17.7323 11.1683 17.0007 11.6138C16.9276 11.6598 16.8837 11.7213 16.8691 11.8135C16.6642 12.6737 15.9327 13.2882 15.0841 13.2882C14.2355 13.2882 13.4894 12.6891 13.2992 11.8135C13.2699 11.7366 13.226 11.6752 13.1529 11.6291C12.4214 11.1836 11.8215 10.4616 11.3972 9.57059C10.9729 8.64887 10.7535 7.54279 10.7535 6.39064C10.7535 6.22165 10.6218 6.08339 10.4609 6.08339C10.2999 6.08339 10.1682 6.22165 10.1682 6.39064C10.1682 7.63497 10.417 8.83321 10.8851 9.83175C11.3387 10.7996 11.9824 11.583 12.7579 12.09C13.0651 13.1653 14.0015 13.9027 15.0841 13.9027C16.1668 13.9027 17.1031 13.1653 17.4104 12.09C18.1858 11.583 18.8442 10.7996 19.2831 9.83175C19.7513 8.83321 20 7.63497 20 6.39064C20 4.7008 19.5318 3.13387 18.7125 1.96635Z" fill="#961914"/>
<path d="M17.3665 8.03444C17.5274 8.06516 17.6884 7.97299 17.7176 7.804C17.8201 7.3585 17.864 6.88228 17.864 6.39069C17.864 3.97884 16.6935 2.24292 15.0841 2.24292C13.4748 2.24292 12.2897 3.9942 12.2897 6.39069C12.2897 8.78718 13.4602 10.5385 15.0695 10.5385C15.9327 10.5385 16.6935 10.0315 17.2202 9.12515C17.308 8.97152 17.2495 8.78718 17.1178 8.71037C16.9715 8.6182 16.7959 8.67964 16.7228 8.8179C16.3131 9.53992 15.7279 9.93934 15.0841 9.93934C13.8113 9.93934 12.8896 8.44921 12.8896 6.40605C12.8896 4.36289 13.8113 2.87277 15.0841 2.87277C16.357 2.87277 17.2787 4.36289 17.2787 6.40605C17.2787 6.85155 17.2348 7.28169 17.1471 7.68111C17.1032 7.83473 17.2056 8.00371 17.3665 8.03444Z" fill="#961914"/>
<path d="M4.28679 15.9766C4.28679 15.8076 4.15512 15.6693 3.99418 15.6693C3.83324 15.6693 3.70157 15.8076 3.70157 15.9766C3.70157 16.1455 3.83324 16.2838 3.99418 16.2838C4.15512 16.2838 4.28679 16.1455 4.28679 15.9766Z" fill="#961914"/>
<path d="M5.16459 17.144C5.32619 17.144 5.4572 17.0065 5.4572 16.8368C5.4572 16.6671 5.32619 16.5295 5.16459 16.5295C5.00299 16.5295 4.87198 16.6671 4.87198 16.8368C4.87198 17.0065 5.00299 17.144 5.16459 17.144Z" fill="#961914"/>
<path d="M5.67665 13.0117C5.83825 13.0117 5.96926 12.8741 5.96926 12.7045C5.96926 12.5348 5.83825 12.3972 5.67665 12.3972C5.51504 12.3972 5.38403 12.5348 5.38403 12.7045C5.38403 12.8741 5.51504 13.0117 5.67665 13.0117Z" fill="#961914"/>
<path d="M13.8551 5.02343C13.8551 5.19241 13.9868 5.33067 14.1477 5.33067C14.3087 5.33067 14.4404 5.19241 14.4404 5.02343C14.4404 4.85445 14.3087 4.71619 14.1477 4.71619C13.9868 4.71619 13.8551 4.85445 13.8551 5.02343Z" fill="#961914"/>
<path d="M15.3182 4.47032C15.4799 4.47032 15.6109 4.33276 15.6109 4.16308C15.6109 3.99339 15.4799 3.85583 15.3182 3.85583C15.1566 3.85583 15.0256 3.99339 15.0256 4.16308C15.0256 4.33276 15.1566 4.47032 15.3182 4.47032Z" fill="#961914"/>
<path d="M15.8449 8.60277C16.0065 8.60277 16.1375 8.46521 16.1375 8.29553C16.1375 8.12584 16.0065 7.98828 15.8449 7.98828C15.6833 7.98828 15.5523 8.12584 15.5523 8.29553C15.5523 8.46521 15.6833 8.60277 15.8449 8.60277Z" fill="#961914"/>
</svg>

<svg width="20" height="21" fill="none" xmlns="http://www.w3.org/2000/svg"><path d="M7.242 8.895C6.935 7.819 6 7.082 4.916 7.082s-2.02.737-2.326 1.813c-.776.507-1.42 1.29-1.873 2.258C.249 12.167 0 13.35 0 14.594c0 1.69.454 3.272 1.287 4.424.908 1.275 2.195 1.967 3.629 1.967 1.434 0 2.721-.692 3.628-1.967a.31.31 0 00-.058-.43c-.132-.107-.308-.077-.41.062-.79 1.106-1.917 1.72-3.16 1.72-1.244 0-2.37-.614-3.16-1.72-.761-1.06-1.17-2.504-1.17-4.056 0-1.152.219-2.258.658-3.165.424-.906 1.024-1.613 1.755-2.058a.27.27 0 00.132-.2c.205-.86.936-1.475 1.785-1.475.848 0 1.595.6 1.785 1.475a.366.366 0 00.131.2c.732.445 1.332 1.167 1.756 2.058.424.922.659 2.013.659 3.165 0 1.03-.176 2.012-.527 2.873-.059.153 0 .338.16.4a.28.28 0 00.381-.17c.38-.937.57-1.997.57-3.103 0-1.244-.248-2.443-.716-3.441-.44-.968-1.097-1.751-1.873-2.258z" fill="#961914"/><path d="M2.721 12.674a.291.291 0 00-.365.215 6.385 6.385 0 00-.22 1.705c0 2.412 1.17 4.148 2.78 4.148 1.61 0 2.78-1.752 2.78-4.148s-1.17-4.148-2.78-4.148c-.732 0-1.405.369-1.902 1.045a.323.323 0 00.044.43c.131.108.307.077.41-.061.394-.523.892-.8 1.448-.8 1.273 0 2.194 1.49 2.194 3.534 0 2.043-.921 3.533-2.194 3.533s-2.195-1.49-2.195-3.533c0-.553.073-1.075.205-1.536a.322.322 0 00-.205-.384zM18.712 1.966C17.805.691 16.518 0 15.084 0c-1.434 0-2.736.691-3.628 1.966-.585.815-.995 1.86-1.17 3.011-.045.154.072.323.233.354a.31.31 0 00.337-.262c.16-1.044.527-1.997 1.068-2.734.79-1.106 1.902-1.72 3.16-1.72 1.244 0 2.37.614 3.16 1.72.761 1.06 1.17 2.504 1.17 4.056 0 1.152-.219 2.258-.658 3.164-.424.907-1.024 1.613-1.755 2.059a.27.27 0 00-.132.2c-.205.86-.936 1.474-1.785 1.474-.848 0-1.595-.599-1.785-1.475a.355.355 0 00-.146-.184c-.732-.445-1.332-1.167-1.756-2.058-.424-.922-.643-2.028-.643-3.18a.301.301 0 00-.293-.308.301.301 0 00-.293.308c0 1.244.249 2.442.717 3.44.454.969 1.097 1.752 1.873 2.259.307 1.075 1.244 1.813 2.326 1.813 1.083 0 2.02-.738 2.326-1.813.776-.507 1.434-1.29 1.873-2.258.468-.999.717-2.197.717-3.441 0-1.69-.468-3.257-1.288-4.425z" fill="#961914"/><path d="M17.366 8.034c.161.031.322-.061.352-.23.102-.446.146-.922.146-1.413 0-2.412-1.17-4.148-2.78-4.148-1.61 0-2.794 1.751-2.794 4.148 0 2.396 1.17 4.148 2.78 4.148.863 0 1.623-.508 2.15-1.414a.306.306 0 00-.102-.415.276.276 0 00-.395.108c-.41.722-.995 1.121-1.639 1.121-1.273 0-2.194-1.49-2.194-3.533s.921-3.533 2.194-3.533 2.195 1.49 2.195 3.533c0 .446-.044.876-.132 1.275a.286.286 0 00.22.353zM4.287 15.977a.301.301 0 00-.293-.308.301.301 0 00-.292.308.3.3 0 00.292.307.302.302 0 00.293-.307zm.878 1.167a.3.3 0 00.292-.307.3.3 0 00-.292-.308.3.3 0 00-.293.308.3.3 0 00.293.307zm.512-4.132a.3.3 0 00.292-.308.3.3 0 00-.292-.307.3.3 0 00-.293.307.3.3 0 00.293.308z" fill="#961914"/><path d="M13.855 5.023c0 .17.132.308.293.308a.301.301 0 00.292-.308.301.301 0 00-.292-.307.301.301 0 00-.293.307zm1.463-.553a.3.3 0 00.293-.307.3.3 0 00-.293-.307.3.3 0 00-.292.307.3.3 0 00.292.307zm.527 4.133a.3.3 0 00.292-.307.3.3 0 00-.292-.308.3.3 0 00-.293.308.3.3 0 00.293.307z" fill="#961914"/></svg>
